&ACCESS  RV
&COMMENT VW310-6 Klebeauftrag_AFO415600
&PARAM DISKPATH = UPs
&PARAM EDITMASK = Up999[1-999]
&PARAM TPVW_VERSION = 8.3.18
&PARAM TEMPLATE = C:\KRC\Roboter\Template\upvorgabe
DEFDAT  Up4
; FOLD ;%{H} %MKUKATPVW
; ENDFOLD
; interface to basic routines
EXT  BAS (BAS_COMMAND  :IN,REAL  :IN )
; interface to VW-standard routines
EXT  VW (VW_COMMAND  :IN,BOOL  :IN,REAL  :IN,REAL  :IN,REAL  :IN,REAL  :IN,BOOL  :IN,E6POS  :IN )
; interface to VW_USER - Call
EXT  VW_USER (VW_USER_CMD  :IN,INT  :IN,REAL  :IN,REAL  :IN,REAL  :IN,REAL  :IN,REAL  :IN,REAL  :IN,REAL  :IN,REAL  :IN,REAL  :IN,BOOL  :IN )
EXT  VW_USR_R (VW_USER_CMD  :IN,INT  :IN,REAL  :IN,REAL  :IN,REAL  :IN,REAL  :IN,REAL  :IN,REAL  :IN,REAL  :IN,REAL  :IN,REAL  :IN,BOOL  :IN )
EXT  IBGN (IBGN_COMMAND  :IN,BOOL  :IN,REAL  :IN,REAL  :IN,BOOL  :IN,E6POS  :OUT )
; interface select routine
EXTFCT  INT  SELECT(SUBTYPE  :IN,INT  :IN,BOOL  :IN,ARI_TYP  :IN,INT  :IN,BOOL_TYP  :IN,INT  :IN,BOOL  :IN)
INT VW_NEXT_FREE=102
INT VW_NFREE_SPS=1
INT VW_MAX_SPS=101
DECL VW_MPARA_TYP P1_D={TOOL_NO 1,BASE_NO 1,VB 100,VE 0,ACC 100,TRG_TIME 0,MOVE_TYPE #PTP_MOTION}
DECL E6POS P1={X 3072.95337,Y -514.426453,Z 379.945923,A -89.9242,B -0.0394972339,C -16.9151516,S 2,T 3,E1 0.0,E2 0.0,E3 0.0,E4 0.0,E5 0.0,E6 0.0}
DECL VW_MPARA_TYP P2_D={TOOL_NO 1,BASE_NO 1,VB 100,VE 100,ACC 100,TRG_TIME 0,MOVE_TYPE #PTP_MOTION}
DECL E6POS P2={X 2563.77,Y -529.820,Z 719.150,A -111.807,B -8.17800,C -69.7040,S 2,T 11,E1 0.0,E2 0.0,E3 0.0,E4 0.0,E5 0.0,E6 0.0}
DECL VW_MPARA_TYP P3_D={TOOL_NO 1,BASE_NO 1,VB 100,VE 100,ACC 100,TRG_TIME 0,MOVE_TYPE #PTP_MOTION}
DECL E6POS P3={X 1798.36,Y -490.100,Z 568.740,A -113.024,B -20.4620,C -71.0220,S 2,T 11,E1 0.0,E2 0.0,E3 0.0,E4 0.0,E5 0.0,E6 0.0}
DECL VW_MPARA_TYP P4_D={TOOL_NO 1,BASE_NO 1,VB 100,VE 100,ACC 100,TRG_TIME 0,MOVE_TYPE #PTP_MOTION}
DECL E6POS P4={X 1516.66,Y -695.060,Z 673.650,A -111.513,B -23.3390,C -79.5130,S 2,T 11,E1 0.0,E2 0.0,E3 0.0,E4 0.0,E5 0.0,E6 0.0}
DECL VW_MPARA_TYP P5_D={TOOL_NO 1,BASE_NO 1,VB 300,VE 60,ACC 100,TRG_TIME 0,MOVE_TYPE #GLUE_MOTION}
DECL E6POS P5={X 1534.92,Y -769.620,Z 680.830,A -109.764,B -24.0240,C -79.2310,S 2,T 11,E1 0.0,E2 0.0,E3 0.0,E4 0.0,E5 0.0,E6 0.0}
DECL VW_MPARA_TYP P6_D={TOOL_NO 1,BASE_NO 1,VB 300,VE 60,ACC 100,TRG_TIME 5,MOVE_TYPE #GLUE_MOTION}
DECL E6POS P6={X 1519.52,Y -785.750,Z 660.630,A -109.764,B -24.0240,C -84.2310,S 2,T 11,E1 0.0,E2 0.0,E3 0.0,E4 0.0,E5 0.0,E6 0.0}
DECL VW_MPARA_TYP P7_D={TOOL_NO 1,BASE_NO 1,VB 300,VE 60,ACC 100,TRG_TIME 0,MOVE_TYPE #GLUE_MOTION}
DECL E6POS P7={X 1508.66,Y -804.510,Z 616.760,A -108.362,B -24.1470,C -88.1200,S 2,T 11,E1 0.0,E2 0.0,E3 0.0,E4 0.0,E5 0.0,E6 0.0}
DECL VW_MPARA_TYP P8_D={TOOL_NO 1,BASE_NO 1,VB 300,VE 60,ACC 100,TRG_TIME 0,MOVE_TYPE #GLUE_MOTION}
DECL E6POS P8={X 1497.53,Y -829.940,Z 572.520,A -109.850,B -24.9540,C -90.8290,S 2,T 11,E1 0.0,E2 0.0,E3 0.0,E4 0.0,E5 0.0,E6 0.0}
DECL VW_MPARA_TYP P9_D={TOOL_NO 1,BASE_NO 1,VB 300,VE 60,ACC 100,TRG_TIME 0,MOVE_TYPE #GLUE_MOTION}
DECL E6POS P9={X 1490.84,Y -855.790,Z 534.330,A -114.773,B -18.1090,C -92.3780,S 2,T 11,E1 0.0,E2 0.0,E3 0.0,E4 0.0,E5 0.0,E6 0.0}
DECL VW_MPARA_TYP P10_D={TOOL_NO 1,BASE_NO 1,VB 300,VE 60,ACC 100,TRG_TIME 0,MOVE_TYPE #GLUE_MOTION}
DECL E6POS P10={X 1484.21,Y -864.510,Z 481.970,A -112.983,B -3.19600,C -81.7290,S 2,T 11,E1 0.0,E2 0.0,E3 0.0,E4 0.0,E5 0.0,E6 0.0}
DECL VW_MPARA_TYP P11_D={TOOL_NO 1,BASE_NO 1,VB 300,VE 60,ACC 100,TRG_TIME 0,MOVE_TYPE #GLUE_MOTION}
DECL E6POS P11={X 1480.92,Y -868.590,Z 434.600,A -110.285,B -1.10500,C -85.7000,S 2,T 11,E1 0.0,E2 0.0,E3 0.0,E4 0.0,E5 0.0,E6 0.0}
DECL VW_MPARA_TYP P12_D={TOOL_NO 1,BASE_NO 1,VB 300,VE 60,ACC 100,TRG_TIME 0,MOVE_TYPE #GLUE_MOTION}
DECL E6POS P12={X 1479.00,Y -869.950,Z 383.830,A -110.297,B -0.273000,C -91.4670,S 2,T 11,E1 0.0,E2 0.0,E3 0.0,E4 0.0,E5 0.0,E6 0.0}
DECL VW_MPARA_TYP P13_D={TOOL_NO 1,BASE_NO 1,VB 300,VE 60,ACC 100,TRG_TIME 0,MOVE_TYPE #GLUE_MOTION}
DECL E6POS P13={X 1477.99,Y -868.890,Z 337.590,A -110.346,B 0.0130000,C -97.2350,S 2,T 11,E1 0.0,E2 0.0,E3 0.0,E4 0.0,E5 0.0,E6 0.0}
DECL VW_MPARA_TYP P14_D={TOOL_NO 1,BASE_NO 1,VB 300,VE 60,ACC 100,TRG_TIME 0,MOVE_TYPE #GLUE_MOTION}
DECL E6POS P14={X 1476.88,Y -867.410,Z 289.120,A -109.538,B 0.0820000,C -103.009,S 2,T 11,E1 0.0,E2 0.0,E3 0.0,E4 0.0,E5 0.0,E6 0.0}
DECL VW_MPARA_TYP P15_D={TOOL_NO 1,BASE_NO 1,VB 300,VE 60,ACC 100,TRG_TIME 0,MOVE_TYPE #GLUE_MOTION}
DECL E6POS P15={X 1476.45,Y -865.210,Z 239.910,A -110.345,B 0.0290000,C -108.769,S 2,T 11,E1 0.0,E2 0.0,E3 0.0,E4 0.0,E5 0.0,E6 0.0}
DECL VW_MPARA_TYP P16_D={TOOL_NO 1,BASE_NO 1,VB 300,VE 60,ACC 100,TRG_TIME 0,MOVE_TYPE #GLUE_MOTION}
DECL E6POS P16={X 1476.53,Y -862.230,Z 191.650,A -110.429,B 1.87200,C -114.538,S 2,T 11,E1 0.0,E2 0.0,E3 0.0,E4 0.0,E5 0.0,E6 0.0}
DECL VW_MPARA_TYP P17_D={TOOL_NO 1,BASE_NO 1,VB 300,VE 60,ACC 100,TRG_TIME 0,MOVE_TYPE #GLUE_MOTION}
DECL E6POS P17={X 1476.00,Y -859.170,Z 146.090,A -110.429,B 1.87200,C -120.306,S 2,T 11,E1 0.0,E2 0.0,E3 0.0,E4 0.0,E5 0.0,E6 0.0}
DECL VW_MPARA_TYP P18_D={TOOL_NO 1,BASE_NO 1,VB 300,VE 60,ACC 100,TRG_TIME 0,MOVE_TYPE #GLUE_MOTION}
DECL E6POS P18={X 1475.71,Y -857.180,Z 93.6300,A -110.345,B -0.0330000,C -126.072,S 2,T 11,E1 0.0,E2 0.0,E3 0.0,E4 0.0,E5 0.0,E6 0.0}
DECL VW_MPARA_TYP P19_D={TOOL_NO 1,BASE_NO 1,VB 300,VE 60,ACC 100,TRG_TIME 0,MOVE_TYPE #GLUE_MOTION}
DECL E6POS P19={X 1474.41,Y -857.180,Z 41.9800,A -110.188,B -0.231000,C -131.841,S 2,T 11,E1 0.0,E2 0.0,E3 0.0,E4 0.0,E5 0.0,E6 0.0}
DECL VW_MPARA_TYP P20_D={TOOL_NO 1,BASE_NO 1,VB 300,VE 60,ACC 100,TRG_TIME 5,MOVE_TYPE #GLUE_MOTION}
DECL E6POS P20={X 1473.26,Y -865.720,Z -14.5900,A -109.877,B -0.342000,C -142.744,S 2,T 11,E1 0.0,E2 0.0,E3 0.0,E4 0.0,E5 0.0,E6 0.0}
DECL VW_MPARA_TYP P21_D={TOOL_NO 1,BASE_NO 1,VB 300,VE 10,ACC 100,TRG_TIME 0,MOVE_TYPE #GLUE_MOTION}
DECL E6POS P21={X 1473.26,Y -815.720,Z -64.5900,A -109.877,B -0.342000,C -142.744,S 2,T 11,E1 0.0,E2 0.0,E3 0.0,E4 0.0,E5 0.0,E6 0.0}
DECL VW_MPARA_TYP P22_D={TOOL_NO 1,BASE_NO 1,VB 100,VE 100,ACC 100,TRG_TIME 0,MOVE_TYPE #PTP_MOTION}
DECL E6POS P22={X 1035.63,Y -447.780,Z 105.560,A -114.215,B 1.98500,C 95.8370,S 2,T 43,E1 0.0,E2 0.0,E3 0.0,E4 0.0,E5 0.0,E6 0.0}
DECL VW_MPARA_TYP P23_D={TOOL_NO 1,BASE_NO 1,VB 100,VE 100,ACC 100,TRG_TIME 0,MOVE_TYPE #PTP_MOTION}
DECL E6POS P23={X 1482.87,Y -850.920,Z -49.9700,A -86.7350,B 32.1880,C 65.5170,S 2,T 35,E1 0.0,E2 0.0,E3 0.0,E4 0.0,E5 0.0,E6 0.0}
DECL VW_MPARA_TYP P24_D={TOOL_NO 1,BASE_NO 1,VB 300,VE 10,ACC 100,TRG_TIME 0,MOVE_TYPE #GLUE_MOTION}
DECL E6POS P24={X 1491.83,Y -848.200,Z -53.4800,A -86.7350,B 32.1880,C 65.5170,S 2,T 35,E1 0.0,E2 0.0,E3 0.0,E4 0.0,E5 0.0,E6 0.0}
DECL VW_MPARA_TYP P25_D={TOOL_NO 1,BASE_NO 1,VB 300,VE 60,ACC 100,TRG_TIME 5,MOVE_TYPE #GLUE_MOTION}
DECL E6POS P25={X 1504.47,Y -860.600,Z -56.9100,A -86.7350,B 32.1880,C 65.5170,S 2,T 35,E1 0.0,E2 0.0,E3 0.0,E4 0.0,E5 0.0,E6 0.0}
DECL VW_MPARA_TYP P26_D={TOOL_NO 1,BASE_NO 1,VB 300,VE 60,ACC 100,TRG_TIME 0,MOVE_TYPE #GLUE_MOTION}
DECL E6POS P26={X 1590.68,Y -859.140,Z -55.7800,A -89.0170,B 32.1870,C 64.3000,S 2,T 35,E1 0.0,E2 0.0,E3 0.0,E4 0.0,E5 0.0,E6 0.0}
DECL VW_MPARA_TYP P27_D={TOOL_NO 1,BASE_NO 1,VB 300,VE 60,ACC 100,TRG_TIME 0,MOVE_TYPE #GLUE_MOTION}
DECL E6POS P27={X 1676.88,Y -857.260,Z -55.4500,A -89.5230,B 32.1810,C 69.0300,S 2,T 35,E1 0.0,E2 0.0,E3 0.0,E4 0.0,E5 0.0,E6 0.0}
DECL VW_MPARA_TYP P28_D={TOOL_NO 1,BASE_NO 1,VB 300,VE 60,ACC 100,TRG_TIME 0,MOVE_TYPE #GLUE_MOTION}
DECL E6POS P28={X 1763.07,Y -854.890,Z -56.1300,A -89.9050,B 31.9770,C 73.8270,S 2,T 35,E1 0.0,E2 0.0,E3 0.0,E4 0.0,E5 0.0,E6 0.0}
DECL VW_MPARA_TYP P29_D={TOOL_NO 1,BASE_NO 1,VB 300,VE 60,ACC 100,TRG_TIME 0,MOVE_TYPE #GLUE_MOTION}
DECL E6POS P29={X 1799.05,Y -853.720,Z -56.8100,A -89.9050,B 31.9770,C 73.8270,S 2,T 35,E1 0.0,E2 0.0,E3 0.0,E4 0.0,E5 0.0,E6 0.0}
DECL VW_MPARA_TYP P30_D={TOOL_NO 1,BASE_NO 1,VB 300,VE 60,ACC 100,TRG_TIME 0,MOVE_TYPE #GLUE_MOTION}
DECL E6POS P30={X 1835.01,Y -852.440,Z -57.9600,A -89.9050,B 31.9770,C 78.8270,S 2,T 35,E1 0.0,E2 0.0,E3 0.0,E4 0.0,E5 0.0,E6 0.0}
DECL VW_MPARA_TYP P31_D={TOOL_NO 1,BASE_NO 1,VB 300,VE 60,ACC 100,TRG_TIME 0,MOVE_TYPE #GLUE_MOTION}
DECL E6POS P31={X 1858.97,Y -851.510,Z -59.2700,A -91.2950,B 31.9470,C 78.0900,S 2,T 35,E1 0.0,E2 0.0,E3 0.0,E4 0.0,E5 0.0,E6 0.0}
DECL VW_MPARA_TYP P32_D={TOOL_NO 1,BASE_NO 1,VB 300,VE 60,ACC 100,TRG_TIME 0,MOVE_TYPE #GLUE_MOTION}
DECL E6POS P32={X 1882.88,Y -850.510,Z -61.2100,A -91.2950,B 31.9470,C 78.0900,S 2,T 35,E1 0.0,E2 0.0,E3 0.0,E4 0.0,E5 0.0,E6 0.0}
DECL VW_MPARA_TYP P33_D={TOOL_NO 1,BASE_NO 1,VB 300,VE 60,ACC 100,TRG_TIME 0,MOVE_TYPE #GLUE_MOTION}
DECL E6POS P33={X 1906.71,Y -849.430,Z -64.0000,A -91.2950,B 31.9470,C 83.0900,S 2,T 35,E1 0.0,E2 0.0,E3 0.0,E4 0.0,E5 0.0,E6 0.0}
DECL VW_MPARA_TYP P34_D={TOOL_NO 1,BASE_NO 1,VB 300,VE 60,ACC 100,TRG_TIME 0,MOVE_TYPE #GLUE_MOTION}
DECL E6POS P34={X 1973.30,Y -845.920,Z -78.1900,A -91.2950,B 31.9470,C 83.0900,S 2,T 35,E1 0.0,E2 0.0,E3 0.0,E4 0.0,E5 0.0,E6 0.0}
DECL VW_MPARA_TYP P35_D={TOOL_NO 1,BASE_NO 1,VB 300,VE 60,ACC 100,TRG_TIME 0,MOVE_TYPE #GLUE_MOTION}
DECL E6POS P35={X 1985.69,Y -846.510,Z -81.5500,A -91.2950,B 31.9470,C 83.0900,S 2,T 35,E1 0.0,E2 0.0,E3 0.0,E4 0.0,E5 0.0,E6 0.0}
DECL VW_MPARA_TYP P36_D={TOOL_NO 1,BASE_NO 1,VB 300,VE 60,ACC 100,TRG_TIME 0,MOVE_TYPE #GLUE_MOTION}
DECL E6POS P36={X 1996.61,Y -844.970,Z -85.1100,A -91.2950,B 31.9470,C 83.0900,S 2,T 35,E1 0.0,E2 0.0,E3 0.0,E4 0.0,E5 0.0,E6 0.0}
DECL VW_MPARA_TYP P37_D={TOOL_NO 1,BASE_NO 1,VB 300,VE 60,ACC 100,TRG_TIME 0,MOVE_TYPE #GLUE_MOTION}
DECL E6POS P37={X 2011.45,Y -853.310,Z -75.6800,A -91.2950,B 31.9470,C 83.0900,S 2,T 35,E1 0.0,E2 0.0,E3 0.0,E4 0.0,E5 0.0,E6 0.0}
DECL VW_MPARA_TYP P38_D={TOOL_NO 1,BASE_NO 1,VB 300,VE 60,ACC 100,TRG_TIME 0,MOVE_TYPE #GLUE_MOTION}
DECL E6POS P38={X 2019.90,Y -857.720,Z -69.8600,A -91.1970,B 29.3830,C 83.1400,S 2,T 35,E1 0.0,E2 0.0,E3 0.0,E4 0.0,E5 0.0,E6 0.0}
DECL VW_MPARA_TYP P39_D={TOOL_NO 1,BASE_NO 1,VB 300,VE 60,ACC 100,TRG_TIME 0,MOVE_TYPE #GLUE_MOTION}
DECL E6POS P39={X 2027.18,Y -860.610,Z -64.1200,A -90.9460,B 22.2120,C 93.2500,S 2,T 35,E1 0.0,E2 0.0,E3 0.0,E4 0.0,E5 0.0,E6 0.0}
DECL VW_MPARA_TYP P40_D={TOOL_NO 1,BASE_NO 1,VB 300,VE 60,ACC 100,TRG_TIME 0,MOVE_TYPE #GLUE_MOTION}
DECL E6POS P40={X 2068.72,Y -861.980,Z -22.2700,A -88.1290,B 4.79700,C 104.078,S 2,T 35,E1 0.0,E2 0.0,E3 0.0,E4 0.0,E5 0.0,E6 0.0}
DECL VW_MPARA_TYP P41_D={TOOL_NO 1,BASE_NO 1,VB 300,VE 60,ACC 100,TRG_TIME 0,MOVE_TYPE #GLUE_MOTION}
DECL E6POS P41={X 2106.60,Y -865.310,Z 19.6600,A -87.4410,B 4.99200,C 106.555,S 2,T 35,E1 0.0,E2 0.0,E3 0.0,E4 0.0,E5 0.0,E6 0.0}
DECL VW_MPARA_TYP P42_D={TOOL_NO 1,BASE_NO 1,VB 300,VE 60,ACC 100,TRG_TIME 0,MOVE_TYPE #GLUE_MOTION}
DECL E6POS P42={X 2177.31,Y -870.420,Z 104.810,A -86.7580,B 5.18400,C 108.903,S 2,T 35,E1 0.0,E2 0.0,E3 0.0,E4 0.0,E5 0.0,E6 0.0}
DECL VW_MPARA_TYP P43_D={TOOL_NO 1,BASE_NO 1,VB 300,VE 60,ACC 100,TRG_TIME 0,MOVE_TYPE #GLUE_MOTION}
DECL E6POS P43={X 2180.46,Y -870.300,Z 108.780,A -85.1030,B 3.58900,C 109.021,S 2,T 35,E1 0.0,E2 0.0,E3 0.0,E4 0.0,E5 0.0,E6 0.0}
DECL VW_MPARA_TYP P44_D={TOOL_NO 1,BASE_NO 1,VB 300,VE 60,ACC 100,TRG_TIME 0,MOVE_TYPE #GLUE_MOTION}
DECL E6POS P44={X 2194.13,Y -869.500,Z 126.070,A -85.0270,B 3.71300,C 109.032,S 2,T 35,E1 0.0,E2 0.0,E3 0.0,E4 0.0,E5 0.0,E6 0.0}
DECL VW_MPARA_TYP P45_D={TOOL_NO 1,BASE_NO 1,VB 300,VE 60,ACC 100,TRG_TIME 0,MOVE_TYPE #GLUE_MOTION}
DECL E6POS P45={X 2221.22,Y -869.140,Z 160.890,A -85.0270,B 3.71300,C 109.032,S 2,T 35,E1 0.0,E2 0.0,E3 0.0,E4 0.0,E5 0.0,E6 0.0}
DECL VW_MPARA_TYP P46_D={TOOL_NO 1,BASE_NO 1,VB 300,VE 60,ACC 100,TRG_TIME 0,MOVE_TYPE #GLUE_MOTION}
DECL E6POS P46={X 2241.30,Y -869.430,Z 187.190,A -85.0270,B 3.71300,C 109.032,S 2,T 35,E1 0.0,E2 0.0,E3 0.0,E4 0.0,E5 0.0,E6 0.0}
DECL VW_MPARA_TYP P47_D={TOOL_NO 1,BASE_NO 1,VB 300,VE 60,ACC 100,TRG_TIME 0,MOVE_TYPE #GLUE_MOTION}
DECL E6POS P47={X 2288.43,Y -870.810,Z 250.350,A -85.0270,B 3.71300,C 109.032,S 2,T 35,E1 0.0,E2 0.0,E3 0.0,E4 0.0,E5 0.0,E6 0.0}
DECL VW_MPARA_TYP P48_D={TOOL_NO 1,BASE_NO 1,VB 300,VE 60,ACC 100,TRG_TIME 0,MOVE_TYPE #GLUE_MOTION}
DECL E6POS P48={X 2341.97,Y -873.570,Z 324.440,A -86.4390,B 4.90700,C 110.939,S 2,T 35,E1 0.0,E2 0.0,E3 0.0,E4 0.0,E5 0.0,E6 0.0}
DECL VW_MPARA_TYP P49_D={TOOL_NO 1,BASE_NO 1,VB 300,VE 60,ACC 100,TRG_TIME 0,MOVE_TYPE #GLUE_MOTION}
DECL E6POS P49={X 2368.29,Y -876.470,Z 361.710,A -83.0410,B 3.30600,C 109.344,S 2,T 35,E1 0.0,E2 0.0,E3 0.0,E4 0.0,E5 0.0,E6 0.0}
DECL VW_MPARA_TYP P50_D={TOOL_NO 1,BASE_NO 1,VB 300,VE 60,ACC 100,TRG_TIME 0,MOVE_TYPE #GLUE_MOTION}
DECL E6POS P50={X 2371.06,Y -876.700,Z 365.660,A -80.3090,B 2.20100,C 105.243,S 2,T 35,E1 0.0,E2 0.0,E3 0.0,E4 0.0,E5 0.0,E6 0.0}
DECL VW_MPARA_TYP P51_D={TOOL_NO 1,BASE_NO 1,VB 300,VE 60,ACC 100,TRG_TIME 0,MOVE_TYPE #GLUE_MOTION}
DECL E6POS P51={X 2406.03,Y -872.170,Z 416.420,A -76.4680,B 0.608000,C 105.039,S 2,T 35,E1 0.0,E2 0.0,E3 0.0,E4 0.0,E5 0.0,E6 0.0}
DECL VW_MPARA_TYP P52_D={TOOL_NO 1,BASE_NO 1,VB 300,VE 60,ACC 100,TRG_TIME 0,MOVE_TYPE #GLUE_MOTION}
DECL E6POS P52={X 2415.52,Y -869.480,Z 433.160,A -72.5770,B -0.955000,C 104.549,S 2,T 43,E1 0.0,E2 0.0,E3 0.0,E4 0.0,E5 0.0,E6 0.0}
DECL VW_MPARA_TYP P53_D={TOOL_NO 1,BASE_NO 1,VB 300,VE 60,ACC 100,TRG_TIME 0,MOVE_TYPE #GLUE_MOTION}
DECL E6POS P53={X 2434.76,Y -863.960,Z 461.880,A -72.5770,B -0.955000,C 104.549,S 2,T 43,E1 0.0,E2 0.0,E3 0.0,E4 0.0,E5 0.0,E6 0.0}
DECL VW_MPARA_TYP P54_D={TOOL_NO 1,BASE_NO 1,VB 300,VE 60,ACC 100,TRG_TIME 0,MOVE_TYPE #GLUE_MOTION}
DECL E6POS P54={X 2445.58,Y -860.260,Z 478.290,A -72.5770,B -0.955000,C 104.549,S 2,T 43,E1 0.0,E2 0.0,E3 0.0,E4 0.0,E5 0.0,E6 0.0}
DECL VW_MPARA_TYP P55_D={TOOL_NO 1,BASE_NO 1,VB 300,VE 60,ACC 100,TRG_TIME 0,MOVE_TYPE #GLUE_MOTION}
DECL E6POS P55={X 2468.40,Y -850.990,Z 511.060,A -91.5080,B -15.9510,C 103.327,S 2,T 43,E1 0.0,E2 0.0,E3 0.0,E4 0.0,E5 0.0,E6 0.0}
DECL VW_MPARA_TYP P56_D={TOOL_NO 1,BASE_NO 1,VB 300,VE 60,ACC 100,TRG_TIME 0,MOVE_TYPE #GLUE_MOTION}
DECL E6POS P56={X 2498.12,Y -835.150,Z 558.970,A -91.5080,B -15.9510,C 99.2720,S 2,T 43,E1 0.0,E2 0.0,E3 0.0,E4 0.0,E5 0.0,E6 0.0}
DECL VW_MPARA_TYP P57_D={TOOL_NO 1,BASE_NO 1,VB 300,VE 60,ACC 100,TRG_TIME 0,MOVE_TYPE #GLUE_MOTION}
DECL E6POS P57={X 2510.74,Y -828.030,Z 580.270,A -91.5080,B -15.9510,C 97.5520,S 2,T 43,E1 0.0,E2 0.0,E3 0.0,E4 0.0,E5 0.0,E6 0.0}
DECL VW_MPARA_TYP P58_D={TOOL_NO 1,BASE_NO 1,VB 300,VE 60,ACC 100,TRG_TIME 0,MOVE_TYPE #GLUE_MOTION}
DECL E6POS P58={X 2516.96,Y -824.900,Z 591.070,A -89.7450,B -18.1480,C 95.6560,S 2,T 43,E1 0.0,E2 0.0,E3 0.0,E4 0.0,E5 0.0,E6 0.0}
DECL VW_MPARA_TYP P59_D={TOOL_NO 1,BASE_NO 1,VB 300,VE 60,ACC 100,TRG_TIME 0,MOVE_TYPE #GLUE_MOTION}
DECL E6POS P59={X 2521.22,Y -823.160,Z 598.620,A -87.3990,B -20.9620,C 93.5960,S 2,T 43,E1 0.0,E2 0.0,E3 0.0,E4 0.0,E5 0.0,E6 0.0}
DECL VW_MPARA_TYP P60_D={TOOL_NO 1,BASE_NO 1,VB 300,VE 60,ACC 100,TRG_TIME 0,MOVE_TYPE #GLUE_MOTION}
DECL E6POS P60={X 2522.55,Y -822.150,Z 601.020,A -86.7530,B -23.0040,C 91.7290,S 2,T 43,E1 0.0,E2 0.0,E3 0.0,E4 0.0,E5 0.0,E6 0.0}
DECL VW_MPARA_TYP P61_D={TOOL_NO 1,BASE_NO 1,VB 300,VE 60,ACC 100,TRG_TIME 0,MOVE_TYPE #GLUE_MOTION}
DECL E6POS P61={X 2552.98,Y -777.640,Z 658.590,A -85.8440,B -25.7740,C 89.7640,S 2,T 43,E1 0.0,E2 0.0,E3 0.0,E4 0.0,E5 0.0,E6 0.0}
DECL VW_MPARA_TYP P62_D={TOOL_NO 1,BASE_NO 1,VB 300,VE 60,ACC 100,TRG_TIME 0,MOVE_TYPE #GLUE_MOTION}
DECL E6POS P62={X 2561.63,Y -764.950,Z 676.600,A -85.8440,B -25.7740,C 88.0440,S 2,T 43,E1 0.0,E2 0.0,E3 0.0,E4 0.0,E5 0.0,E6 0.0}
DECL VW_MPARA_TYP P63_D={TOOL_NO 1,BASE_NO 1,VB 300,VE 60,ACC 100,TRG_TIME 0,MOVE_TYPE #GLUE_MOTION}
DECL E6POS P63={X 2570.90,Y -751.860,Z 698.310,A -86.5460,B -24.4400,C 86.4940,S 2,T 43,E1 0.0,E2 0.0,E3 0.0,E4 0.0,E5 0.0,E6 0.0}
DECL VW_MPARA_TYP P64_D={TOOL_NO 1,BASE_NO 1,VB 300,VE 60,ACC 100,TRG_TIME 0,MOVE_TYPE #GLUE_MOTION}
DECL E6POS P64={X 2574.20,Y -747.020,Z 707.780,A -87.4930,B -22.5900,C 84.9770,S 2,T 43,E1 0.0,E2 0.0,E3 0.0,E4 0.0,E5 0.0,E6 0.0}
DECL VW_MPARA_TYP P65_D={TOOL_NO 1,BASE_NO 1,VB 300,VE 60,ACC 100,TRG_TIME 0,MOVE_TYPE #GLUE_MOTION}
DECL E6POS P65={X 2576.16,Y -725.710,Z 760.030,A -87.4930,B -22.5900,C 83.2560,S 2,T 43,E1 0.0,E2 0.0,E3 0.0,E4 0.0,E5 0.0,E6 0.0}
DECL VW_MPARA_TYP P66_D={TOOL_NO 1,BASE_NO 1,VB 300,VE 10,ACC 100,TRG_TIME 5,MOVE_TYPE #GLUE_MOTION}
DECL E6POS P66={X 2567.68,Y -719.450,Z 777.360,A -87.4930,B -22.5900,C 81.5350,S 2,T 43,E1 0.0,E2 0.0,E3 0.0,E4 0.0,E5 0.0,E6 0.0}
DECL VW_MPARA_TYP P67_D={TOOL_NO 1,BASE_NO 1,VB 300,VE 10,ACC 100,TRG_TIME 0,MOVE_TYPE #GLUE_MOTION}
DECL E6POS P67={X 2556.15,Y -701.510,Z 788.650,A -87.4930,B -22.5900,C 79.8140,S 2,T 43,E1 0.0,E2 0.0,E3 0.0,E4 0.0,E5 0.0,E6 0.0}
DECL VW_MPARA_TYP P68_D={TOOL_NO 1,BASE_NO 1,VB 300,VE 10,ACC 100,TRG_TIME 0,MOVE_TYPE #GLUE_MOTION}
DECL E6POS P68={X 2524.73,Y -697.780,Z 754.430,A -87.4930,B -22.5900,C 78.0940,S 2,T 43,E1 0.0,E2 0.0,E3 0.0,E4 0.0,E5 0.0,E6 0.0}
DECL VW_MPARA_TYP P69_D={TOOL_NO 1,BASE_NO 1,VB 300,VE 10,ACC 100,TRG_TIME 0,MOVE_TYPE #GLUE_MOTION}
DECL E6POS P69={X 2544.43,Y -648.530,Z 722.400,A -85.8620,B -21.1110,C 76.1550,S 2,T 43,E1 0.0,E2 0.0,E3 0.0,E4 0.0,E5 0.0,E6 0.0}
DECL VW_MPARA_TYP P70_D={TOOL_NO 1,BASE_NO 1,VB 300,VE 10,ACC 100,TRG_TIME 0,MOVE_TYPE #GLUE_MOTION}
DECL E6POS P70={X 2576.32,Y -683.680,Z 784.830,A -87.4910,B -15.4850,C 74.7760,S 2,T 43,E1 0.0,E2 0.0,E3 0.0,E4 0.0,E5 0.0,E6 0.0}
DECL VW_MPARA_TYP P71_D={TOOL_NO 1,BASE_NO 1,VB 300,VE 10,ACC 50,TRG_TIME 0,MOVE_TYPE #GLUE_MOTION}
DECL E6POS P71={X 2577.66,Y -697.840,Z 780.700,A -87.8610,B -15.7830,C 73.0880,S 2,T 43,E1 0.0,E2 0.0,E3 0.0,E4 0.0,E5 0.0,E6 0.0}
DECL VW_MPARA_TYP P72_D={TOOL_NO 1,BASE_NO 1,VB 300,VE 60,ACC 50,TRG_TIME 5,MOVE_TYPE #GLUE_MOTION}
DECL E6POS P72={X 2534.91,Y -712.400,Z 778.140,A -93.2990,B -35.1820,C 75.7980,S 2,T 43,E1 0.0,E2 0.0,E3 0.0,E4 0.0,E5 0.0,E6 0.0}
DECL VW_MPARA_TYP P73_D={TOOL_NO 1,BASE_NO 1,VB 300,VE 60,ACC 100,TRG_TIME 0,MOVE_TYPE #GLUE_MOTION}
DECL E6POS P73={X 2496.50,Y -718.280,Z 770.060,A -93.2990,B -35.1820,C 76.1330,S 2,T 43,E1 0.0,E2 0.0,E3 0.0,E4 0.0,E5 0.0,E6 0.0}
DECL VW_MPARA_TYP P74_D={TOOL_NO 1,BASE_NO 1,VB 300,VE 60,ACC 100,TRG_TIME 5,MOVE_TYPE #GLUE_MOTION}
DECL E6POS P74={X 2461.09,Y -723.520,Z 762.430,A -93.2990,B -35.1820,C 76.4690,S 2,T 43,E1 0.0,E2 0.0,E3 0.0,E4 0.0,E5 0.0,E6 0.0}
DECL VW_MPARA_TYP P75_D={TOOL_NO 1,BASE_NO 1,VB 300,VE 60,ACC 100,TRG_TIME 0,MOVE_TYPE #GLUE_MOTION}
DECL E6POS P75={X 2421.64,Y -731.560,Z 746.740,A -93.2990,B -35.1820,C 131.804,S 2,T 43,E1 0.0,E2 0.0,E3 0.0,E4 0.0,E5 0.0,E6 0.0}
DECL VW_MPARA_TYP P76_D={TOOL_NO 1,BASE_NO 1,VB 300,VE 60,ACC 100,TRG_TIME 5,MOVE_TYPE #GLUE_MOTION}
DECL E6POS P76={X 2389.69,Y -733.480,Z 746.260,A -93.2990,B -35.1820,C 130.836,S 2,T 43,E1 0.0,E2 0.0,E3 0.0,E4 0.0,E5 0.0,E6 0.0}
DECL VW_MPARA_TYP P77_D={TOOL_NO 1,BASE_NO 1,VB 300,VE 60,ACC 100,TRG_TIME 0,MOVE_TYPE #GLUE_MOTION}
DECL E6POS P77={X 2345.50,Y -739.580,Z 737.210,A -94.4500,B -34.5440,C 130.527,S 2,T 43,E1 0.0,E2 0.0,E3 0.0,E4 0.0,E5 0.0,E6 0.0}
DECL VW_MPARA_TYP P78_D={TOOL_NO 1,BASE_NO 1,VB 300,VE 60,ACC 100,TRG_TIME 0,MOVE_TYPE #GLUE_MOTION}
DECL E6POS P78={X 2298.51,Y -745.740,Z 727.410,A -94.4270,B -34.5490,C 129.546,S 2,T 43,E1 0.0,E2 0.0,E3 0.0,E4 0.0,E5 0.0,E6 0.0}
DECL VW_MPARA_TYP P79_D={TOOL_NO 1,BASE_NO 1,VB 300,VE 60,ACC 100,TRG_TIME 0,MOVE_TYPE #GLUE_MOTION}
DECL E6POS P79={X 2246.54,Y -751.070,Z 720.260,A -92.4800,B -34.8830,C 127.463,S 2,T 43,E1 0.0,E2 0.0,E3 0.0,E4 0.0,E5 0.0,E6 0.0}
DECL VW_MPARA_TYP P80_D={TOOL_NO 1,BASE_NO 1,VB 300,VE 60,ACC 100,TRG_TIME 0,MOVE_TYPE #GLUE_MOTION}
DECL E6POS P80={X 2195.76,Y -754.490,Z 715.720,A -91.1350,B -35.0200,C 125.721,S 2,T 43,E1 0.0,E2 0.0,E3 0.0,E4 0.0,E5 0.0,E6 0.0}
DECL VW_MPARA_TYP P81_D={TOOL_NO 1,BASE_NO 1,VB 300,VE 60,ACC 100,TRG_TIME 0,MOVE_TYPE #GLUE_MOTION}
DECL E6POS P81={X 2145.70,Y -757.550,Z 712.870,A -90.6400,B -35.0510,C 124.468,S 2,T 43,E1 0.0,E2 0.0,E3 0.0,E4 0.0,E5 0.0,E6 0.0}
DECL VW_MPARA_TYP P82_D={TOOL_NO 1,BASE_NO 1,VB 300,VE 60,ACC 100,TRG_TIME 0,MOVE_TYPE #GLUE_MOTION}
DECL E6POS P82={X 2094.56,Y -760.570,Z 710.610,A -90.6070,B -35.0530,C 123.482,S 2,T 43,E1 0.0,E2 0.0,E3 0.0,E4 0.0,E5 0.0,E6 0.0}
DECL VW_MPARA_TYP P83_D={TOOL_NO 1,BASE_NO 1,VB 300,VE 60,ACC 100,TRG_TIME 0,MOVE_TYPE #GLUE_MOTION}
DECL E6POS P83={X 2046.16,Y -762.700,Z 708.180,A -90.5720,B -35.0550,C 122.494,S 2,T 43,E1 0.0,E2 0.0,E3 0.0,E4 0.0,E5 0.0,E6 0.0}
DECL VW_MPARA_TYP P84_D={TOOL_NO 1,BASE_NO 1,VB 300,VE 60,ACC 100,TRG_TIME 0,MOVE_TYPE #GLUE_MOTION}
DECL E6POS P84={X 1998.71,Y -764.840,Z 704.730,A -90.5420,B -35.0560,C 121.509,S 2,T 43,E1 0.0,E2 0.0,E3 0.0,E4 0.0,E5 0.0,E6 0.0}
DECL VW_MPARA_TYP P85_D={TOOL_NO 1,BASE_NO 1,VB 300,VE 60,ACC 100,TRG_TIME 0,MOVE_TYPE #GLUE_MOTION}
DECL E6POS P85={X 1950.73,Y -767.150,Z 701.930,A -90.5110,B -35.0580,C 120.524,S 2,T 43,E1 0.0,E2 0.0,E3 0.0,E4 0.0,E5 0.0,E6 0.0}
DECL VW_MPARA_TYP P86_D={TOOL_NO 1,BASE_NO 1,VB 300,VE 60,ACC 100,TRG_TIME 0,MOVE_TYPE #GLUE_MOTION}
DECL E6POS P86={X 1897.49,Y -769.500,Z 699.180,A -90.4770,B -35.0590,C 119.536,S 2,T 43,E1 0.0,E2 0.0,E3 0.0,E4 0.0,E5 0.0,E6 0.0}
DECL VW_MPARA_TYP P87_D={TOOL_NO 1,BASE_NO 1,VB 300,VE 60,ACC 100,TRG_TIME 0,MOVE_TYPE #GLUE_MOTION}
DECL E6POS P87={X 1845.51,Y -772.180,Z 696.270,A -90.4430,B -35.0610,C 118.549,S 2,T 43,E1 0.0,E2 0.0,E3 0.0,E4 0.0,E5 0.0,E6 0.0}
DECL VW_MPARA_TYP P88_D={TOOL_NO 1,BASE_NO 1,VB 300,VE 60,ACC 100,TRG_TIME 0,MOVE_TYPE #GLUE_MOTION}
DECL E6POS P88={X 1797.49,Y -773.880,Z 693.150,A -90.4130,B -35.0620,C 117.564,S 2,T 43,E1 0.0,E2 0.0,E3 0.0,E4 0.0,E5 0.0,E6 0.0}
DECL VW_MPARA_TYP P89_D={TOOL_NO 1,BASE_NO 1,VB 300,VE 60,ACC 100,TRG_TIME 0,MOVE_TYPE #GLUE_MOTION}
DECL E6POS P89={X 1745.81,Y -776.000,Z 690.280,A -90.3800,B -35.0640,C 116.578,S 2,T 43,E1 0.0,E2 0.0,E3 0.0,E4 0.0,E5 0.0,E6 0.0}
DECL VW_MPARA_TYP P90_D={TOOL_NO 1,BASE_NO 1,VB 300,VE 60,ACC 100,TRG_TIME 0,MOVE_TYPE #GLUE_MOTION}
DECL E6POS P90={X 1694.55,Y -778.110,Z 687.750,A -90.3470,B -35.0650,C 115.591,S 2,T 43,E1 0.0,E2 0.0,E3 0.0,E4 0.0,E5 0.0,E6 0.0}
DECL VW_MPARA_TYP P91_D={TOOL_NO 1,BASE_NO 1,VB 300,VE 60,ACC 100,TRG_TIME 5,MOVE_TYPE #GLUE_MOTION}
DECL E6POS P91={X 1655.16,Y -779.910,Z 685.780,A -90.3220,B -35.0660,C 114.609,S 2,T 43,E1 0.0,E2 0.0,E3 0.0,E4 0.0,E5 0.0,E6 0.0}
DECL VW_MPARA_TYP P92_D={TOOL_NO 1,BASE_NO 1,VB 300,VE 60,ACC 100,TRG_TIME 0,MOVE_TYPE #GLUE_MOTION}
DECL E6POS P92={X 1647.26,Y -777.370,Z 682.000,A -90.3220,B -35.0660,C 113.641,S 2,T 43,E1 0.0,E2 0.0,E3 0.0,E4 0.0,E5 0.0,E6 0.0}
DECL VW_MPARA_TYP P93_D={TOOL_NO 1,BASE_NO 1,VB 300,VE 60,ACC 100,TRG_TIME 0,MOVE_TYPE #GLUE_MOTION}
DECL E6POS P93={X 1633.54,Y -785.830,Z 653.740,A -90.3220,B -35.0660,C 112.674,S 2,T 43,E1 0.0,E2 0.0,E3 0.0,E4 0.0,E5 0.0,E6 0.0}
DECL VW_MPARA_TYP P94_D={TOOL_NO 1,BASE_NO 1,VB 300,VE 60,ACC 100,TRG_TIME 0,MOVE_TYPE #GLUE_MOTION}
DECL E6POS P94={X 1613.12,Y -782.020,Z 679.050,A -90.3220,B -35.0660,C 111.706,S 2,T 43,E1 0.0,E2 0.0,E3 0.0,E4 0.0,E5 0.0,E6 0.0}
DECL VW_MPARA_TYP P95_D={TOOL_NO 1,BASE_NO 1,VB 300,VE 60,ACC 100,TRG_TIME 5,MOVE_TYPE #GLUE_MOTION}
DECL E6POS P95={X 1591.16,Y -782.280,Z 681.520,A -90.3220,B -35.0660,C 110.738,S 2,T 43,E1 0.0,E2 0.0,E3 0.0,E4 0.0,E5 0.0,E6 0.0}
DECL VW_MPARA_TYP P96_D={TOOL_NO 1,BASE_NO 1,VB 300,VE 60,ACC 100,TRG_TIME 5,MOVE_TYPE #GLUE_MOTION}
DECL E6POS P96={X 1535.55,Y -783.650,Z 678.530,A -90.2500,B -33.8720,C 109.755,S 2,T 43,E1 0.0,E2 0.0,E3 0.0,E4 0.0,E5 0.0,E6 0.0}
DECL VW_MPARA_TYP P97_D={TOOL_NO 1,BASE_NO 1,VB 300,VE 60,ACC 100,TRG_TIME 0,MOVE_TYPE #GLUE_MOTION}
DECL E6POS P97={X 1485.55,Y -733.650,Z 678.530,A -90.2500,B -33.8720,C 108.788,S 2,T 43,E1 0.0,E2 0.0,E3 0.0,E4 0.0,E5 0.0,E6 0.0}
DECL VW_MPARA_TYP P98_D={TOOL_NO 1,BASE_NO 1,VB 300,VE 60,ACC 100,TRG_TIME 0,MOVE_TYPE #GLUE_MOTION}
DECL E6POS P98={X 1485.91,Y -650.620,Z 622.800,A -90.2500,B -33.8720,C 107.820,S 2,T 43,E1 0.0,E2 0.0,E3 0.0,E4 0.0,E5 0.0,E6 0.0}
DECL VW_MPARA_TYP P99_D={TOOL_NO 1,BASE_NO 1,VB 100,VE 100,ACC 100,TRG_TIME 0,MOVE_TYPE #PTP_MOTION}
DECL E6POS P99={X 1470.61,Y -507.970,Z 404.550,A -94.8320,B -21.9390,C 117.448,S 2,T 43,E1 0.0,E2 0.0,E3 0.0,E4 0.0,E5 0.0,E6 0.0}
DECL VW_MPARA_TYP P100_D={TOOL_NO 1,BASE_NO 1,VB 100,VE 100,ACC 100,TRG_TIME 0,MOVE_TYPE #PTP_MOTION}
DECL E6POS P100={X 2583.99,Y -529.820,Z 529.310,A -112.753,B -4.75900,C -76.3240,S 2,T 11,E1 0.0,E2 0.0,E3 0.0,E4 0.0,E5 0.0,E6 0.0}
DECL VW_MPARA_TYP P101_D={TOOL_NO 1,BASE_NO 1,VB 100,VE 0,ACC 100,TRG_TIME 0,MOVE_TYPE #PTP_MOTION}
DECL E6POS P101={X 3072.95337,Y -514.426453,Z 379.945923,A -89.9242,B -0.0394972339,C -16.9151516,S 2,T 3,E1 0.0,E2 0.0,E3 0.0,E4 0.0,E5 0.0,E6 0.0}
ENDDAT